16x16/actions/automated-tasks.svg

<svg xmlns="http://www.w3.org/2000/svg" viewBox="0 0 16 16"><path style="fill:currentColor;fill-opacity:1;stroke:none;color:#5d656b" d="M8 2a1 1 0 0 0-1 1 1 1 0 0 0 1 1 1 1 0 0 0 1-1 1 1 0 0 0-1-1zM4 5c-.554 0-1 .446-1 1v5c0 .554.446 1 1 1h3v1H5v1h6v-1H9v-1h3c.554 0 1-.446 1-1V6c0-.554-.446-1-1-1H4zm1 1h6c.554 0 1 .446 1 1s-.446 1-1 1H5c-.554 0-1-.446-1-1s.446-1 1-1z"/></svg>

<svg xmlns="http://www.w3.org/2000/svg" viewBox="0 0 16 16">
  <defs id="defs3051">
    <style type="text/css" id="current-color-scheme">
      .ColorScheme-Text {
        color:#5d656b;
      }
      </style>
  </defs>
 <path style="fill:currentColor;fill-opacity:1;stroke:none" 
     d="M 8 2 A 1 1 0 0 0 7 3 A 1 1 0 0 0 8 4 A 1 1 0 0 0 9 3 A 1 1 0 0 0 8 2 z M 4 5 C 3.4459836 5 3 5.4459836 3 6 L 3 11 C 3 11.554016 3.4459836 12 4 12 L 7 12 L 7 13 L 5 13 L 5 14 L 11 14 L 11 13 L 9 13 L 9 12 L 12 12 C 12.554016 12 13 11.554016 13 11 L 13 6 C 13 5.4459836 12.554016 5 12 5 L 4 5 z M 5 6 L 11 6 C 11.554 6 12 6.446 12 7 C 12 7.554 11.554 8 11 8 L 5 8 C 4.446 8 4 7.554 4 7 C 4 6.446 4.446 6 5 6 z "
     class="ColorScheme-Text"
     />
</svg>
